public/images/farms/ada-bnb.svg

<svg width="186" height="179" viewBox="0 0 186 179" fill="none" xmlns="http://www.w3.org/2000/svg">
<path d="M67.045 119.028C63.8667 131.172 82.0449 146.449 107.647 153.149C133.25 159.849 156.581 155.436 159.759 143.291C162.937 131.146 144.759 115.87 119.157 109.169C93.5546 102.469 70.2233 106.883 67.045 119.028Z" fill="#606063"/>
<path d="M155.924 149.273L171.346 132.988L61.9922 104.369L67.7128 126.187L155.924 149.273Z" fill="#606063"/>
<path d="M68.9337 108.293L27.0725 97.338C25.258 96.8632 23.4126 97.9924 23.0096 99.8242L22.5414 101.953C21.6084 106.194 24.1195 110.433 28.2875 111.653L70.0994 123.892L68.9337 108.293Z" fill="#606063"/>
<path d="M62.2026 98.7096C58.5089 112.824 80.5267 130.811 111.381 138.886C142.235 146.96 170.241 142.064 173.935 127.95C177.629 113.836 155.611 95.8488 124.757 87.7742C93.9028 79.6996 65.8963 84.5955 62.2026 98.7096Z" fill="url(#paint0_linear)"/>
<path fill-rule="evenodd" clip-rule="evenodd" d="M146.673 123.286C153.771 128.506 157.919 134.152 158.538 139.157L161.516 138.789C160.744 132.551 155.779 126.258 148.45 120.869C141.061 115.434 131.011 110.721 119.537 107.718C108.063 104.716 96.9927 103.901 87.888 105.019C78.8593 106.128 71.4479 109.182 67.7196 114.242L70.1348 116.021C73.1263 111.961 79.5082 109.071 88.2536 107.997C96.9231 106.933 107.608 107.698 118.777 110.621C129.946 113.544 139.636 118.111 146.673 123.286Z" fill="#606063"/>
<path fill-rule="evenodd" clip-rule="evenodd" d="M75.7343 118.739C67.0136 111.615 63.7365 104.698 65.1049 99.4692C66.4733 94.2403 72.7186 89.8155 83.8112 87.8763C94.6178 85.9872 108.889 86.7226 123.997 90.6764C139.105 94.6302 151.908 100.98 160.403 107.921C169.124 115.045 172.401 121.962 171.033 127.191C169.664 132.42 163.419 136.844 152.326 138.784C141.52 140.673 127.248 139.937 112.14 135.984C97.0323 132.03 84.2301 125.68 75.7343 118.739ZM111.381 138.886C80.5267 130.811 58.5089 112.824 62.2026 98.7096C65.8963 84.5955 93.9028 79.6996 124.757 87.7742C155.611 95.8488 177.629 113.836 173.935 127.95C170.241 142.064 142.235 146.96 111.381 138.886Z" fill="#979797"/>
<path fill-rule="evenodd" clip-rule="evenodd" d="M64.1673 124.049L59.2305 104.926L62.1352 104.176L67.0721 123.299L64.1673 124.049Z" fill="url(#paint1_linear)"/>
<path fill-rule="evenodd" clip-rule="evenodd" d="M62.4691 106.189C62.4241 106.041 62.3812 105.893 62.3406 105.746C62.2656 105.473 62.1983 105.2 62.1386 104.929L61.997 104.389C61.9948 104.38 62.0025 104.372 62.0109 104.375C62.019 104.377 62.0266 104.37 62.0251 104.362C62.0236 104.353 62.0222 104.345 62.0207 104.337C61.9732 104.072 61.9333 103.807 61.9009 103.543C61.8931 103.479 61.8857 103.416 61.8788 103.352C61.8065 102.689 61.7824 102.031 61.8078 101.378C61.8079 101.378 61.8079 101.378 61.8079 101.377C61.8432 100.475 61.9734 99.5849 62.2025 98.7095C65.8962 84.5954 93.9027 79.6994 124.757 87.774C155.611 95.8486 177.629 113.836 173.935 127.95C173.706 128.826 173.383 129.666 172.972 130.469C172.972 130.469 172.972 130.47 172.972 130.47C172.528 131.338 171.981 132.163 171.337 132.945C171.332 132.951 171.326 132.958 171.321 132.964C171.319 132.967 171.318 132.969 171.318 132.972C171.318 132.977 171.322 132.982 171.327 132.983C171.332 132.984 171.335 132.989 171.336 132.993C171.336 132.996 171.335 133 171.333 133.002L170.725 133.644C170.655 133.72 170.584 133.795 170.511 133.87L169.275 135.175L169.273 135.177L157.793 147.299C150.986 156.33 130.197 159.051 107.647 153.149C85.3446 147.312 68.6757 134.967 66.8505 123.854C66.7571 123.285 66.3667 122.8 65.8135 122.639L29.1271 111.91C24.9834 110.698 22.4722 106.499 23.3648 102.275L23.8239 100.103C24.2137 98.2581 26.0655 97.1133 27.8898 97.589L62.1386 106.52C62.3391 106.573 62.5217 106.39 62.4691 106.189ZM58.8119 102.553C58.7482 101.009 58.9029 99.4681 59.3002 97.9499C61.6255 89.0648 71.2303 83.9845 82.7779 81.9658C94.6114 79.8971 109.77 80.751 125.516 84.8718C141.262 88.9926 154.896 95.6738 164.199 103.274C173.277 110.691 179.162 119.825 176.837 128.71C176.28 130.839 175.285 132.774 173.936 134.499C173.821 134.697 173.679 134.887 173.511 135.065L172.923 135.686C172.92 135.689 172.916 135.693 172.913 135.697C172.836 135.779 172.759 135.861 172.68 135.943C172.677 135.946 172.673 135.95 172.67 135.953L160.082 149.246C155.911 154.652 148.056 157.706 138.984 158.802C129.684 159.926 118.467 159.082 106.888 156.051C95.4351 153.054 85.3397 148.366 77.8095 142.91C70.73 137.78 65.4882 131.648 64.0667 125.253L28.285 114.789C22.6362 113.137 19.2128 107.413 20.4296 101.655L20.8887 99.4823C21.6325 95.9628 25.166 93.7783 28.6468 94.6861L58.8119 102.553Z" fill="url(#paint2_linear)"/>
<circle cx="76" cy="29" r="29" fill="#F0B90B"/>
<path d="M65.1846 28.9998L60.7476 33.4676L56.2798 28.9998L60.7476 24.532L65.1846 28.9998ZM75.9998 18.1846L83.6413 25.8261L88.1091 21.3583L80.4676 13.7476L75.9998 9.27979L71.532 13.7476L63.9213 21.3583L68.3891 25.8261L75.9998 18.1846ZM91.252 24.532L86.815 28.9998L91.2828 33.4676L95.7198 28.9998L91.252 24.532ZM75.9998 39.815L68.3583 32.1735L63.9213 36.6413L71.5628 44.2828L75.9998 48.7198L80.4676 44.252L88.1091 36.6105L83.6413 32.1735L75.9998 39.815ZM75.9998 33.4676L80.4676 28.9998L75.9998 24.532L71.532 28.9998L75.9998 33.4676Z" fill="#FFFDFA"/>
<g style="mix-blend-mode:multiply" opacity="0.1">
<circle cx="76" cy="29" r="27.5" stroke="#191326" stroke-width="3"/>
</g>
<circle cx="125.5" cy="72.5" r="43.5" fill="#0033AD"/>
<path d="M124.785 46.3789C126.031 45.7206 127.536 47.2252 126.877 48.4712C126.501 49.4821 125.044 49.7642 124.291 48.9884C123.516 48.2596 123.774 46.7785 124.785 46.3789ZM111.408 47.8364C112.161 47.5308 113.125 48.2126 113.054 49.0354C113.125 49.9288 112.043 50.587 111.267 50.1639C110.233 49.7642 110.35 48.095 111.408 47.8364ZM138.797 50.1874C137.621 50.0463 137.433 48.1891 138.562 47.8129C139.455 47.3898 140.254 48.1891 140.372 49.0354C140.207 49.7407 139.619 50.3989 138.797 50.1874ZM114.441 53.5257C115.711 52.7264 117.497 53.9253 117.309 55.3829C117.239 56.864 115.287 57.7338 114.159 56.7229C113.101 55.9236 113.266 54.1134 114.441 53.5257ZM133.742 54.372C134.306 52.9144 136.587 52.8674 137.222 54.278C137.856 55.3829 137.08 56.7464 135.952 57.1226C134.447 57.4047 133.037 55.7826 133.742 54.372ZM123.163 57.0285C123.14 55.7825 124.291 54.8422 125.467 54.7717C126.243 54.9362 127.113 55.2654 127.442 56.0647C128.076 57.1696 127.512 58.6742 126.384 59.1679C125.867 59.45 125.255 59.356 124.691 59.3089C123.821 58.8858 123.092 58.0629 123.163 57.0285ZM103.274 58.8623C104.426 58.157 105.978 59.45 105.555 60.696C105.32 61.7774 103.862 62.2241 103.016 61.5188C102.122 60.8841 102.263 59.3089 103.274 58.8623ZM145.99 58.8623C146.978 58.11 148.576 58.9798 148.459 60.2023C148.529 61.3307 147.119 62.1771 146.155 61.5893C145.097 61.1192 145.003 59.4735 145.99 58.8623ZM128.758 61.0956C130.38 60.5079 132.285 61.2132 133.201 62.6473C134.424 64.4104 133.766 67.0905 131.885 68.1014C129.934 69.3004 127.089 68.2895 126.36 66.1031C125.561 64.1518 126.76 61.7069 128.758 61.0956ZM119.284 61.2837C121.071 60.4374 123.492 61.1427 124.338 62.9764C125.349 64.7631 124.574 67.2316 122.74 68.1719C120.93 69.2063 118.344 68.4305 117.474 66.5028C116.51 64.6455 117.38 62.1536 119.284 61.2837ZM109.786 64.528C109.927 63.376 111.009 62.6237 112.114 62.5532C113.289 62.6943 114.253 63.6111 114.371 64.8101C114.3 65.9856 113.383 67.161 112.114 67.1375C110.75 67.2786 109.528 65.8915 109.786 64.528ZM137.833 62.8118C139.243 61.989 141.218 63.188 141.148 64.8101C141.242 66.5263 139.055 67.7488 137.645 66.7379C136.187 65.8915 136.305 63.5171 137.833 62.8118ZM115.428 68.9007C117.098 68.454 118.978 69.2298 119.801 70.7579C120.695 72.286 120.318 74.4254 118.955 75.5538C117.168 77.1995 113.9 76.5412 112.96 74.2843C111.855 72.192 113.172 69.4414 115.428 68.9007ZM133.413 68.8772C135.035 68.407 136.916 69.0418 137.786 70.4993C138.938 72.1685 138.373 74.684 136.681 75.7654C134.894 77.0349 132.12 76.3531 131.133 74.4019C129.934 72.3801 131.133 69.5119 133.413 68.8772ZM104.755 70.805C106.189 70.2642 107.788 71.8394 107.2 73.2734C106.848 74.5664 105.014 75.0366 104.074 74.0962C102.969 73.1794 103.392 71.1811 104.755 70.805ZM143.616 72.8503C143.569 71.6513 144.439 70.6169 145.661 70.5463C146.649 70.7109 147.589 71.4867 147.519 72.5681C147.613 73.9787 145.896 74.9426 144.697 74.2843C144.133 74.0022 143.851 73.4145 143.616 72.8503ZM97.7025 71.4867C98.5724 71.1106 99.6303 71.8629 99.4422 72.8267C99.3952 73.9082 97.7966 74.3313 97.2088 73.4145C96.6916 72.7797 96.9972 71.8158 97.7025 71.4867ZM152.079 71.4632C152.691 71.04 153.654 71.3457 153.89 72.0509C154.289 72.8267 153.56 73.8847 152.667 73.7671C151.468 73.8847 151.068 72.0039 152.079 71.4632ZM120.107 76.6823C122.387 76.0945 124.809 77.9753 124.832 80.3262C124.973 82.6771 122.575 84.7694 120.248 84.2287C118.461 83.9466 117.051 82.2069 117.098 80.3967C117.098 78.657 118.414 77.0349 120.107 76.6823ZM129.087 76.6823C131.391 76.0475 133.907 77.9753 133.86 80.3497C133.977 82.6771 131.65 84.6989 129.369 84.2287C127.23 83.9466 125.655 81.5957 126.243 79.5269C126.572 78.1398 127.724 77.0114 129.087 76.6823ZM111.785 78.1163C113.383 77.8342 114.864 79.6209 114.23 81.1255C113.759 82.7476 111.408 83.1708 110.374 81.8543C109.152 80.6083 110.045 78.2809 111.785 78.1163ZM138.115 78.1868C139.525 77.5991 141.289 78.8216 141.171 80.3732C141.218 82.0659 139.079 83.2413 137.692 82.254C136.117 81.3371 136.399 78.7276 138.115 78.1868ZM145.497 85.5688C144.933 84.5343 145.943 83.1473 147.095 83.3589C147.66 83.3589 148.059 83.8056 148.435 84.1817C148.506 84.7929 148.647 85.5217 148.13 85.9919C147.425 86.8618 145.873 86.6267 145.497 85.5688ZM103.274 83.641C104.356 82.9357 105.907 83.9936 105.649 85.2396C105.531 86.3446 104.121 86.9793 103.204 86.3681C102.216 85.8038 102.24 84.1582 103.274 83.641ZM124.527 85.9684C125.937 85.3572 127.724 86.5797 127.606 88.1313C127.7 89.8474 125.49 91.0229 124.103 90.012C122.575 89.1186 122.834 86.5091 124.527 85.9684ZM114.676 88.2723C115.875 87.6376 117.497 88.7425 117.38 90.0825C117.427 91.1875 116.345 92.1278 115.24 91.9633C114.347 91.9398 113.759 91.1404 113.454 90.3646C113.501 89.5183 113.83 88.5779 114.676 88.2723ZM134.636 88.2958C135.858 87.5435 137.621 88.6249 137.504 90.059C137.527 91.5636 135.552 92.5275 134.4 91.5401C133.295 90.7643 133.437 88.9071 134.636 88.2958ZM138.115 96.8532C137.574 96.0304 138.209 95.0195 139.102 94.8314C139.808 94.9725 140.583 95.5132 140.419 96.336C140.301 97.4879 138.656 97.8171 138.115 96.8532ZM110.562 96.1479C110.774 95.4896 111.314 94.8314 112.09 94.9959C113.219 95.0665 113.548 96.7827 112.56 97.2999C111.667 97.9111 110.656 97.0883 110.562 96.1479ZM123.845 96.9002C124.056 95.9363 125.326 95.4426 126.149 95.9598C126.689 96.1949 126.854 96.8062 126.995 97.3234C126.924 97.6055 126.854 97.8641 126.783 98.1462C126.454 98.5458 126.008 98.9455 125.443 98.9455C124.409 99.0631 123.445 97.8876 123.845 96.9002Z" fill="#FFFDFA"/>
<g style="mix-blend-mode:multiply" opacity="0.2">
<circle cx="125.5" cy="72.5" r="42.0815" stroke="#191326" stroke-width="2.83696"/>
</g>
<defs>
<linearGradient id="paint0_linear" x1="124.757" y1="87.7742" x2="111.381" y2="138.886" gradientUnits="userSpaceOnUse">
<stop stop-color="#404042"/>
<stop offset="1" stop-color="#48484B"/>
</linearGradient>
<linearGradient id="paint1_linear" x1="65.5673" y1="105.096" x2="60.7353" y2="123.129" gradientUnits="userSpaceOnUse">
<stop stop-color="#404042"/>
<stop offset="1" stop-color="#48484B"/>
</linearGradient>
<linearGradient id="paint2_linear" x1="92.4948" y1="80.1687" x2="108.09" y2="164.62" gradientUnits="userSpaceOnUse">
<stop stop-color="#404042"/>
<stop offset="1" stop-color="#48484B"/>
</linearGradient>
</defs>
</svg>

<svg xmlns="http://www.w3.org/2000/svg" width="186" height="179" fill="none"  xmlns:v="https://vecta.io/nano"><g fill="#606063"><path d="M67.045 119.028c-3.178 12.144 15 27.421 40.602 34.121s48.934 2.287 52.112-9.858-15-27.421-40.602-34.122-48.934-2.286-52.112 9.859z"/><path d="M155.924 149.273l15.422-16.285-109.354-28.619 5.721 21.818 88.211 23.086z"/><path d="M68.934 108.293L27.073 97.338c-1.815-.475-3.66.654-4.063 2.486l-.468 2.129a8.26 8.26 0 0 0 5.746 9.7l41.812 12.239-1.166-15.599z"/></g><path d="M62.203 98.71c-3.694 14.114 18.324 32.101 49.178 40.176s58.86 3.178 62.554-10.936-18.324-32.101-49.178-40.176-58.861-3.179-62.554 10.935z" fill="url(#A)"/><g fill-rule="evenodd"><path d="M146.673 123.286c7.098 5.22 11.246 10.866 11.865 15.871l2.978-.368c-.772-6.238-5.737-12.531-13.066-17.92-7.389-5.435-17.439-10.148-28.913-13.151s-22.544-3.817-31.649-2.699c-9.029 1.109-16.44 4.163-20.168 9.223l2.415 1.779c2.992-4.06 9.373-6.95 18.119-8.024 8.67-1.064 19.354-.299 30.523 2.624s20.859 7.49 27.896 12.665z" fill="#606063"/><path d="M75.734 118.739c-8.721-7.124-11.998-14.041-10.629-19.27s7.614-9.654 18.706-11.593c10.807-1.889 25.078-1.154 40.186 2.8s27.911 10.304 36.406 17.245c8.721 7.124 11.998 14.041 10.63 19.27s-7.614 9.653-18.707 11.593c-10.806 1.889-25.078 1.153-40.186-2.8s-27.91-10.304-36.406-17.245zm35.647 20.147c-30.854-8.075-52.872-26.062-49.178-40.176s31.7-19.01 62.554-10.935 52.872 26.062 49.178 40.176-31.7 19.01-62.554 10.936z" fill="#979797"/><path d="M64.167 124.049l-4.937-19.123 2.905-.75 4.937 19.123-2.905.75z" fill="url(#B)"/><path d="M62.469 106.189l-.128-.443-.202-.817-.142-.54c.022-.012.03-.019.028-.027l-.004-.025-.12-.794-.022-.191c-.072-.663-.096-1.321-.071-1.974.035-.903.166-1.793.395-2.668 3.694-14.114 31.7-19.01 62.555-10.936s52.872 26.062 49.178 40.176a12.4 12.4 0 0 1-.963 2.519 13.7 13.7 0 0 1-1.635 2.476l-.016.019c.011.02.014.025.015.029l-.611.651-12.932 13.655c-6.807 9.031-27.596 11.752-50.146 5.85-22.302-5.837-38.971-18.182-40.797-29.295-.093-.569-.484-1.054-1.037-1.215L29.127 111.91a8.26 8.26 0 0 1-5.762-9.635l.459-2.172c.39-1.845 2.242-2.99 4.066-2.514l34.249 8.931a.27.27 0 0 0 .331-.331zm-3.657-3.636c-.064-1.544.091-3.085.488-4.603 2.325-8.885 11.93-13.965 23.478-15.984 11.834-2.069 26.992-1.215 42.738 2.906s29.38 10.802 38.683 18.402c9.078 7.417 14.963 16.551 12.638 25.436-.557 2.129-1.552 4.064-2.901 5.789a3.08 3.08 0 0 1-.425.566l-13.429 14.181c-4.171 5.406-12.026 8.46-21.098 9.556-9.3 1.124-20.517.28-32.096-2.751-11.453-2.997-21.548-7.685-29.079-13.141-7.079-5.13-12.321-11.262-13.743-17.657l-35.782-10.464a11.26 11.26 0 0 1-7.855-13.134l.459-2.173c.744-3.519 4.277-5.704 7.758-4.796l30.165 7.867z" fill="url(#C)"/></g><circle cx="76" cy="29" r="29" fill="#f0b90b"/><path d="M65.185 29l-4.437 4.468L56.28 29l4.468-4.468L65.185 29zM76 18.185l7.642 7.642 4.468-4.468-7.641-7.611L76 9.28 63.921 21.358l4.468 4.468L76 18.185zm15.252 6.347L86.815 29l4.468 4.468L95.72 29l-4.468-4.468zM76 39.815l-7.641-7.642-4.437 4.468L76 48.72l12.109-12.109-4.468-4.437L76 39.815zm0-6.347L80.468 29 76 24.532 71.532 29 76 33.468z" fill="#fffdfa"/><circle cx="76" cy="29" r="27.5" stroke="#191326" stroke-width="3" style="mix-blend-mode:multiply" opacity=".1"/><circle cx="125.5" cy="72.5" r="43.5" fill="#0033ad"/><path d="M124.785 46.379c1.246-.658 2.751.846 2.092 2.092-.376 1.011-1.833 1.293-2.586.517-.775-.729-.517-2.21.494-2.609zm-13.377 1.457c.753-.306 1.717.376 1.646 1.199.071.893-1.011 1.552-1.787 1.128-1.034-.4-.917-2.069.141-2.328zm27.389 2.351c-1.176-.141-1.364-1.998-.235-2.374.893-.423 1.692.376 1.81 1.223-.165.705-.753 1.363-1.575 1.152zm-24.356 3.338c1.27-.799 3.056.4 2.868 1.857-.07 1.481-2.022 2.351-3.15 1.34-1.058-.799-.893-2.61.282-3.197zm19.301.846c.564-1.458 2.845-1.505 3.48-.094.634 1.105-.142 2.468-1.27 2.845-1.505.282-2.915-1.34-2.21-2.751zm-10.579 2.657c-.023-1.246 1.128-2.186 2.304-2.257.776.164 1.646.494 1.975 1.293.634 1.105.07 2.609-1.058 3.103-.517.282-1.129.188-1.693.141-.87-.423-1.599-1.246-1.528-2.28zm-19.889 1.834c1.152-.705 2.704.588 2.281 1.834-.235 1.081-1.693 1.528-2.539.823-.894-.635-.753-2.21.258-2.657zm42.716 0c.988-.752 2.586.117 2.469 1.34.07 1.128-1.34 1.975-2.304 1.387-1.058-.47-1.152-2.116-.165-2.727zm-17.232 2.233c1.622-.588 3.527.118 4.443 1.552 1.223 1.763.565 4.443-1.316 5.454-1.951 1.199-4.796.188-5.525-1.998-.799-1.951.4-4.396 2.398-5.007zm-9.474.188c1.787-.846 4.208-.141 5.054 1.693 1.011 1.787.236 4.255-1.598 5.195-1.81 1.034-4.396.259-5.266-1.669-.964-1.857-.094-4.349 1.81-5.219zm-9.498 3.244c.141-1.152 1.223-1.904 2.328-1.975 1.175.141 2.139 1.058 2.257 2.257-.071 1.175-.988 2.351-2.257 2.327-1.364.141-2.586-1.246-2.328-2.609zm28.047-1.716c1.41-.823 3.385.376 3.315 1.998.094 1.716-2.093 2.939-3.503 1.928-1.458-.846-1.34-3.221.188-3.926zm-22.405 6.089c1.67-.447 3.55.329 4.373 1.857.894 1.528.517 3.667-.846 4.796-1.787 1.646-5.055.987-5.995-1.269-1.105-2.092.212-4.843 2.468-5.384zm17.985-.023c1.622-.47 3.503.165 4.373 1.622 1.152 1.669.587 4.185-1.105 5.266-1.787 1.269-4.561.588-5.548-1.364-1.199-2.022 0-4.89 2.28-5.525zm-28.658 1.928c1.434-.541 3.033 1.034 2.445 2.468-.352 1.293-2.186 1.763-3.126.823-1.105-.917-.682-2.915.681-3.291zm38.861 2.045c-.047-1.199.823-2.233 2.045-2.304.988.165 1.928.94 1.858 2.022.094 1.411-1.623 2.374-2.822 1.716-.564-.282-.846-.87-1.081-1.434zm-45.914-1.364c.87-.376 1.928.376 1.74 1.34-.047 1.081-1.646 1.505-2.233.588-.517-.635-.212-1.599.494-1.928zm54.377-.023c.612-.423 1.575-.118 1.811.588.399.776-.33 1.834-1.223 1.716-1.199.118-1.599-1.763-.588-2.304zm-31.972 5.219c2.28-.588 4.702 1.293 4.725 3.644.141 2.351-2.257 4.443-4.584 3.903-1.787-.282-3.197-2.022-3.15-3.832 0-1.74 1.316-3.362 3.009-3.714zm8.98 0c2.304-.635 4.82 1.293 4.773 3.667.117 2.327-2.21 4.349-4.491 3.879-2.139-.282-3.714-2.633-3.126-4.702.329-1.387 1.481-2.516 2.844-2.845zm-17.302 1.434c1.598-.282 3.079 1.505 2.445 3.009-.471 1.622-2.822 2.045-3.856.729-1.222-1.246-.329-3.573 1.411-3.738zm26.33.071c1.41-.588 3.174.635 3.056 2.186.047 1.693-2.092 2.868-3.479 1.881-1.575-.917-1.293-3.526.423-4.067zm7.382 7.382c-.564-1.034.446-2.421 1.598-2.21.565 0 .964.447 1.34.823.071.611.212 1.34-.305 1.81-.705.87-2.257.635-2.633-.423zm-42.223-1.928c1.082-.705 2.633.353 2.375 1.599-.118 1.105-1.528 1.74-2.445 1.129-.988-.564-.964-2.21.07-2.727zm21.253 2.327c1.41-.611 3.197.611 3.079 2.163.094 1.716-2.116 2.892-3.503 1.881-1.528-.893-1.269-3.503.424-4.044zm-9.851 2.304c1.199-.635 2.821.47 2.704 1.81.047 1.105-1.035 2.045-2.14 1.881-.893-.023-1.481-.823-1.786-1.599.047-.846.376-1.787 1.222-2.092zm19.96.023c1.222-.752 2.985.329 2.868 1.763.023 1.505-1.952 2.469-3.104 1.481-1.105-.776-.963-2.633.236-3.244zm3.479 8.557c-.541-.823.094-1.834.987-2.022.706.141 1.481.682 1.317 1.505-.118 1.152-1.763 1.481-2.304.517zm-27.553-.705c.212-.658.752-1.317 1.528-1.152 1.129.071 1.458 1.787.47 2.304-.893.611-1.904-.212-1.998-1.152zm13.283.752c.211-.964 1.481-1.458 2.304-.94.54.235.705.846.846 1.364l-.212.823c-.329.4-.775.799-1.34.799-1.034.118-1.998-1.058-1.598-2.045z" fill="#fffdfa"/><circle cx="125.5" cy="72.5" r="42.082" stroke="#191326" stroke-width="2.837" style="mix-blend-mode:multiply" opacity=".2"/><defs><linearGradient id="A" x1="124.757" y1="87.774" x2="111.381" y2="138.886" gradientUnits="userSpaceOnUse"><stop stop-color="#404042"/><stop offset="1" stop-color="#48484b"/></linearGradient><linearGradient id="B" x1="65.567" y1="105.096" x2="60.735" y2="123.129" gradientUnits="userSpaceOnUse"><stop stop-color="#404042"/><stop offset="1" stop-color="#48484b"/></linearGradient><linearGradient id="C" x1="92.495" y1="80.169" x2="108.09" y2="164.62" gradientUnits="userSpaceOnUse"><stop stop-color="#404042"/><stop offset="1" stop-color="#48484b"/></linearGradient></defs></svg>
